img/whale.svg

<svg width="586" height="392" viewBox="0 0 586 392" fill="none" xmlns="http://www.w3.org/2000/svg">
<path d="M258.009 114.871C258.009 114.871 270.117 90.6131 380.715 106.123C389.979 114.871 367.551 152.801 338.946 156.697C309.042 157.946 249.72 125.456 258.009 114.871Z" fill="#4488B7"/>
<path d="M522.031 186.688C522.031 186.688 544.622 199.992 559.981 220.501C575.34 240.936 581.922 278.572 559.981 285.262C538.04 291.877 480.425 244.171 480.425 244.171L522.031 186.688Z" fill="#4488B7"/>
<path d="M368.932 103.11C368.932 103.11 460.515 -2.66823 531.539 0.0515643C588.016 8.06393 604.594 36.9525 559.818 142.657C515.042 248.435 429.31 305.109 348.535 321.649C267.76 338.188 199.581 340.54 161.631 335.395C126.526 345.245 126.526 345.245 126.526 345.245L157.649 391.04H132.377C132.377 391.04 83.7005 369.061 89.5514 351.934C36.0806 352.302 1.9503 334.807 0 326.794C86.6259 322.384 98.3277 318.194 98.3277 318.194C98.3277 318.194 107.998 249.317 257.927 207.05C333.908 164.562 368.932 103.11 368.932 103.11Z" fill="#4488B7"/>
<path opacity="0.13" d="M478.962 40.5544C478.962 40.5544 547.547 21.3688 566.969 69.59C570.626 90.7603 555.267 142.951 491.395 130.381C437.355 116.194 446.863 65.3266 465.472 51.1396C475.63 43.2008 478.962 40.5544 478.962 40.5544Z" fill="#4488B7"/>
<path d="M471.648 59.6666C480.018 59.152 488.389 59.0786 496.84 59.1521C505.21 59.2256 513.58 59.7401 522.112 60.7692C523.25 60.8427 524.225 61.0634 525.282 61.2839C526.419 61.5044 527.395 61.5778 528.451 61.8718C529.589 62.0924 530.564 62.2394 531.62 62.6069L533.164 63.1216L533.977 63.4156L534.79 63.7831L536.333 64.5918C536.74 64.8858 537.227 65.1798 537.634 65.4738C538.04 65.7679 538.528 66.0619 538.934 66.3559L540.153 67.3849C541.778 68.7816 543.159 70.2517 544.46 71.7954C546.979 74.8827 549.173 78.1906 551.042 81.572C552.911 84.9534 554.699 88.4818 555.999 92.0837C554.049 88.7758 551.936 85.4679 549.742 82.3071C547.548 79.1462 545.11 75.9855 542.428 73.1922C539.746 70.3989 536.821 67.679 533.408 66.2823L532.758 65.9883L532.108 65.7678L530.645 65.4003C529.751 65.1062 528.695 65.0327 527.638 64.8122C526.663 64.5916 525.688 64.5182 524.632 64.2976C523.657 64.0771 522.681 64.0036 521.544 63.9301C517.481 63.342 513.255 63.048 509.192 62.6069L502.935 62.0924L496.677 61.5779C488.389 60.9898 480.018 60.4017 471.648 59.6666Z" fill="#4488B7"/>
</svg>

<svg width="586" height="392" fill="none" xmlns="http://www.w3.org/2000/svg"><path d="M258.009 114.871s12.108-24.258 122.706-8.748c9.264 8.748-13.164 46.678-41.769 50.574-29.904 1.249-89.226-31.241-80.937-41.826zm264.022 71.817s22.591 13.304 37.95 33.813c15.359 20.435 21.941 58.071 0 64.761-21.941 6.615-79.556-41.091-79.556-41.091l41.606-57.483z" fill="#4488B7"/><path d="M368.932 103.11S460.515-2.668 531.539.052c56.477 8.012 73.055 36.9 28.279 142.605-44.776 105.778-130.508 162.452-211.283 178.992-80.775 16.539-148.954 18.891-186.904 13.746l-35.105 9.85 31.123 45.795h-25.272S83.7 369.061 89.551 351.934c-53.47.368-87.6-17.127-89.551-25.14 86.626-4.41 98.328-8.6 98.328-8.6s9.67-68.877 159.599-111.144c75.981-42.488 111.005-103.94 111.005-103.94z" fill="#4488B7"/><path opacity=".13" d="M478.962 40.554s68.585-19.185 88.007 29.036c3.657 21.17-11.702 73.361-75.574 60.791-54.04-14.187-44.532-65.054-25.923-79.241 10.158-7.94 13.49-10.586 13.49-10.586z" fill="#4488B7"/><path d="M471.648 59.667c8.37-.515 16.741-.588 25.192-.515 8.37.074 16.74.588 25.272 1.617 1.138.074 2.113.294 3.17.515 1.137.22 2.113.294 3.169.588 1.138.22 2.113.367 3.169.735l1.544.515.813.294.813.367 1.543.809c.407.294.894.588 1.301.882.406.294.894.588 1.3.882l1.219 1.029c1.625 1.397 3.006 2.867 4.307 4.41a66.01 66.01 0 016.582 9.777c1.869 3.381 3.657 6.91 4.957 10.512a157.74 157.74 0 00-6.257-9.777c-2.194-3.16-4.632-6.322-7.314-9.115-2.682-2.793-5.607-5.513-9.02-6.91l-.65-.294-.65-.22-1.463-.368c-.894-.294-1.95-.367-3.007-.588-.975-.22-1.95-.294-3.006-.514-.975-.22-1.951-.294-3.088-.368-4.063-.588-8.289-.882-12.352-1.323l-6.257-.515-6.258-.514c-8.288-.588-16.659-1.176-25.029-1.911z" fill="#4488B7"/></svg>
